src/icons/clock.svg

<svg width="26" height="25" viewBox="0 0 26 25" fill="none" xmlns="http://www.w3.org/2000/svg">
<path d="M15.5996 22.8807C15.399 22.9307 15.1944 22.9751 14.9914 23.0125C14.4606 23.1112 14.1097 23.6216 14.2079 24.1529C14.2564 24.4142 14.4048 24.6319 14.6063 24.774C14.814 24.9202 15.0783 24.9862 15.3477 24.9361C15.5895 24.8912 15.8332 24.8384 16.0723 24.7788C16.5964 24.6483 16.9157 24.1174 16.785 23.5935C16.6545 23.0692 16.124 22.7501 15.5996 22.8807Z" fill="#1B365D"/>
<path d="M22.8327 9.77031C22.9012 9.9768 23.032 10.1454 23.1972 10.2618C23.4422 10.4344 23.7628 10.4924 24.0687 10.3913C24.5816 10.221 24.8594 9.66795 24.6898 9.15534C24.6125 8.92165 24.5267 8.68724 24.4353 8.45899C24.2347 7.95741 23.6658 7.71321 23.1639 7.91385C22.6626 8.11437 22.4183 8.68347 22.6191 9.18521C22.6959 9.37705 22.7678 9.57397 22.8327 9.77031Z" fill="#1B365D"/>
<path d="M18.7774 21.4843C18.6048 21.5982 18.4267 21.7084 18.2473 21.8117C17.7793 22.0817 17.619 22.68 17.8889 23.1479C17.9621 23.2751 18.0597 23.3791 18.1721 23.4586C18.4739 23.6709 18.8836 23.7027 19.2248 23.5062C19.4381 23.3832 19.6502 23.2523 19.8557 23.1164C20.3062 22.8188 20.4302 22.2119 20.1324 21.7612C19.8346 21.3103 19.228 21.1864 18.7774 21.4843Z" fill="#1B365D"/>
<path d="M25.2973 12.5021C25.276 11.9622 24.8213 11.542 24.2812 11.5631C23.7419 11.5844 23.3214 12.0393 23.3426 12.5789C23.3507 12.7853 23.3528 12.9947 23.348 13.2008C23.3404 13.5393 23.506 13.8411 23.7633 14.0225C23.9166 14.1305 24.1027 14.1958 24.3044 14.2004C24.8443 14.2124 25.2917 13.7842 25.3036 13.244C25.309 12.9978 25.307 12.7482 25.2973 12.5021Z" fill="#1B365D"/>
<path d="M22.6732 18.9112C22.2403 18.5864 21.6279 18.6745 21.3037 19.1067C21.1795 19.2721 21.0487 19.4356 20.9149 19.593C20.565 20.0041 20.6144 20.6215 21.0255 20.9717C21.0489 20.9916 21.0726 21.0098 21.0972 21.027C21.5059 21.3151 22.0739 21.2489 22.4043 20.8611C22.5642 20.6734 22.7201 20.4781 22.8684 20.2805C23.1927 19.8484 23.1049 19.2355 22.6732 18.9112Z" fill="#1B365D"/>
<path d="M24.1116 15.3753C23.5962 15.2137 23.0473 15.5006 22.8858 16.0161C22.824 16.213 22.7554 16.4108 22.6815 16.6046C22.5191 17.0312 22.6747 17.5006 23.0314 17.7521C23.0968 17.7981 23.1689 17.837 23.2472 17.8666C23.7519 18.0592 24.317 17.806 24.5093 17.3011C24.5972 17.0707 24.6786 16.8353 24.7523 16.6012C24.9137 16.0857 24.627 15.5369 24.1116 15.3753Z" fill="#1B365D"/>
<path d="M11.3323 23.0214C10.4578 22.8644 9.61896 22.597 8.82349 22.2241C8.81408 22.2192 8.80566 22.2136 8.79577 22.2091C8.60832 22.1208 8.42118 22.0263 8.2398 21.9276C8.23917 21.9269 8.23802 21.9264 8.23703 21.926C7.90423 21.7427 7.57943 21.5399 7.26389 21.3178C2.66277 18.0766 1.55647 11.6964 4.79785 7.09531C5.50267 6.09519 6.35561 5.26081 7.30652 4.5995C7.31824 4.59135 7.32995 4.58324 7.34156 4.57503C10.6924 2.2662 15.2423 2.1106 18.8004 4.48313L18.0362 5.58728C17.8238 5.89461 17.9545 6.11857 18.3264 6.0851L21.6458 5.78792C22.0182 5.75444 22.2409 5.43231 22.1408 5.07268L21.2494 1.86101C21.1496 1.50097 20.8941 1.45787 20.6814 1.76514L19.9155 2.87191C17.3043 1.11911 14.1725 0.450738 11.0641 0.989764C10.751 1.04395 10.4423 1.11027 10.1378 1.18747C10.1355 1.18789 10.1336 1.18815 10.1317 1.18856C10.12 1.19144 10.108 1.19526 10.0966 1.19845C7.41609 1.8868 5.0774 3.45016 3.40859 5.68075C3.39453 5.69743 3.38004 5.71375 3.36675 5.7319C3.31126 5.80664 3.25619 5.88311 3.20226 5.95957C3.11408 6.08489 3.02715 6.21334 2.94399 6.3418C2.93359 6.35728 2.92564 6.37302 2.91654 6.38866C1.53942 8.52264 0.875181 10.9897 0.989095 13.5014C0.989357 13.5097 0.988886 13.518 0.989095 13.5264C1.00013 13.7718 1.01959 14.0205 1.046 14.2654C1.04741 14.2812 1.05092 14.2962 1.05358 14.312C1.08089 14.5582 1.11514 14.805 1.15808 15.0518C1.59449 17.5695 2.78217 19.8351 4.56186 21.5979C4.56599 21.6021 4.57028 21.6066 4.57446 21.6108C4.57593 21.6125 4.57755 21.6133 4.57896 21.6148C5.05711 22.0864 5.5772 22.5226 6.1372 22.917C7.60271 23.9497 9.23459 24.6323 10.9871 24.9468C11.5189 25.0423 12.0268 24.6884 12.1222 24.1569C12.2176 23.625 11.8639 23.1166 11.3323 23.0214Z" fill="#1B365D"/>
<path d="M12.5417 5.07111C12.1043 5.07111 11.75 5.42572 11.75 5.86249V13.7469L18.9609 17.4745C19.077 17.5346 19.2012 17.5629 19.3235 17.5629C19.6099 17.5629 19.8865 17.4069 20.0272 17.1348C20.2278 16.7464 20.076 16.2693 19.6876 16.0687L13.3325 12.7832V5.86249C13.3325 5.42572 12.9786 5.07111 12.5417 5.07111Z" fill="#1B365D"/>
</svg>

<svg width="26" height="25" xmlns="http://www.w3.org/2000/svg"><path d="M15.6 22.88c-.201.05-.406.095-.609.133a.979.979 0 00.357 1.923c.241-.045.485-.098.724-.157a.978.978 0 10-.472-1.898zM22.833 9.77a.975.975 0 001.236.621.978.978 0 00.62-1.236 12.128 12.128 0 00-.254-.696.978.978 0 10-1.816.726c.077.192.149.389.214.585zM18.777 21.484c-.172.114-.35.224-.53.328a.978.978 0 00.978 1.694c.213-.123.425-.254.63-.39a.978.978 0 00-1.078-1.632zM25.297 12.502a.978.978 0 00-1.954.077 10 10 0 01.005.622.977.977 0 101.956.043c.005-.246.003-.496-.007-.742zM22.673 18.911a.978.978 0 00-1.37.196c-.123.165-.254.329-.388.486a.978.978 0 001.49 1.268c.16-.188.315-.383.463-.58a.978.978 0 00-.195-1.37zM24.112 15.375a.978.978 0 00-1.226.641c-.062.197-.13.395-.204.589a.979.979 0 001.827.696c.088-.23.17-.466.243-.7a.978.978 0 00-.64-1.226zM11.332 23.021a10.1 10.1 0 01-2.509-.797l-.027-.015a10.771 10.771 0 01-.559-.283 10.447 10.447 0 01-.973-.608c-4.601-3.241-5.708-9.622-2.466-14.223.705-1 1.558-1.834 2.509-2.495l.035-.025c3.35-2.309 7.9-2.464 11.458-.092l-.764 1.104c-.212.308-.082.532.29.498l3.32-.297a.547.547 0 00.495-.715l-.892-3.212c-.1-.36-.355-.403-.568-.096l-.765 1.107A12.08 12.08 0 0011.064.99c-.313.054-.622.12-.926.197l-.006.002A12.06 12.06 0 003.409 5.68l-.042.05a11.576 11.576 0 00-.423.61l-.027.048A12.059 12.059 0 00.989 13.5v.025c.011.246.03.495.057.74.001.015.005.03.008.046a12.071 12.071 0 003.508 7.286l.012.013.005.004c.478.471.998.908 1.558 1.302a12.06 12.06 0 004.85 2.03.978.978 0 10.345-1.926z" /><path d="M12.542 5.071a.792.792 0 00-.792.791v7.885l7.21 3.727a.791.791 0 10.727-1.406l-6.355-3.285v-6.92a.791.791 0 00-.79-.792z" /></svg>
